src/static/linkedin icon .svg

<?xml version="1.0" encoding="UTF-8" standalone="no"?>
<svg width="20px" height="20px" viewBox="0 0 20 20" version="1.1" xmlns="http://www.w3.org/2000/svg" xmlns:xlink="http://www.w3.org/1999/xlink">
    <!-- Generator: Sketch 50.2 (55047) - http://www.bohemiancoding.com/sketch -->
    <title>Group 2</title>
    <desc>Created with Sketch.</desc>
    <defs></defs>
    <g id="Page-1" stroke="none" stroke-width="1" fill="none" fill-rule="evenodd" opacity="0.4">
        <g id="Group-4" transform="translate(-138.000000, -514.000000)" fill="#414241">
            <g id="Group-2" transform="translate(138.000000, 514.000000)">
                <path d="M16.358,3.4492 C14.7072,1.7932 12.4264,0.7732 9.9038,0.7732 C7.3808,0.7732 5.1,1.7932 3.4492,3.4492 C1.7934,5.0998 0.7732,7.381 0.7732,9.9034 C0.7732,12.426 1.7934,14.7074 3.4492,16.3578 C5.1,18.014 7.3808,19.0338 9.9038,19.0338 C12.4264,19.0338 14.7072,18.014 16.358,16.3578 C18.014,14.7074 19.034,12.426 19.034,9.9034 C19.034,7.381 18.014,5.0998 16.358,3.4492 Z M9.9038,0 C12.64,0 15.1132,1.1076 16.9064,2.9008 C18.6996,4.694 19.8072,7.1672 19.8072,9.9034 C19.8072,12.6398 18.6996,15.113 16.9064,16.9062 C15.1132,18.6994 12.64,19.8072 9.9038,19.8072 C7.1672,19.8072 4.6942,18.6994 2.9012,16.9062 C1.1076,15.113 0,12.6398 0,9.9034 C0,7.1672 1.1076,4.694 2.9012,2.9008 C4.6942,1.1076 7.1672,0 9.9038,0 Z" id="Fill-21"></path>
                <path d="M6.442,5.4 C5.8662,5.4 5.4,5.8662 5.4,6.442 C5.4,7.0178 5.8662,7.484 6.442,7.484 C7.0178,7.484 7.4838,7.0178 7.4838,6.442 C7.4838,5.8662 7.0178,5.4 6.442,5.4 Z M14.2892,10.2094 C14.152,9.0796 13.6368,8.3778 12.1122,8.3778 C11.2182,8.3778 10.615,8.7068 10.3628,9.184 L10.3354,9.184 L10.3354,8.3778 L8.6736,8.3778 L8.6736,14.3386 L10.4122,14.3386 L10.4122,11.383 C10.4122,10.604 10.5656,9.853 11.5202,9.853 C12.4794,9.853 12.5506,10.7412 12.5506,11.4376 L12.5506,14.3386 L14.3384,14.3386 L14.3384,11.0648 C14.3384,10.7576 14.3218,10.4726 14.2892,10.2094 Z M5.4,9.9626 L5.4,14.3386 L7.4838,14.3386 L7.4838,8.3778 L5.4,8.3778 L5.4,9.9626 Z" id="Fill-47"></path>
            </g>
        </g>
    </g>
</svg>

<svg width="20" height="20" xmlns="http://www.w3.org/2000/svg"><g fill="#414241" fill-rule="evenodd" opacity=".4"><path d="M16.358 3.45A9.078 9.078 0 0 0 9.904.772 9.079 9.079 0 0 0 3.449 3.45 9.08 9.08 0 0 0 .773 9.903a9.079 9.079 0 0 0 2.676 6.455 9.078 9.078 0 0 0 6.455 2.676 9.078 9.078 0 0 0 6.454-2.676 9.078 9.078 0 0 0 2.676-6.455 9.078 9.078 0 0 0-2.676-6.454zM9.904 0a9.867 9.867 0 0 1 7.002 2.9 9.867 9.867 0 0 1 2.901 7.003 9.867 9.867 0 0 1-2.9 7.003 9.867 9.867 0 0 1-7.003 2.901 9.866 9.866 0 0 1-7.003-2.9A9.866 9.866 0 0 1 0 9.902a9.866 9.866 0 0 1 2.901-7.002A9.866 9.866 0 0 1 9.904 0z"/><path d="M6.442 5.4a1.042 1.042 0 1 0 0 2.083 1.042 1.042 0 0 0 0-2.083zm7.847 4.81c-.137-1.13-.652-1.832-2.177-1.832-.894 0-1.497.329-1.75.806h-.027v-.806H8.674v5.96h1.738v-2.955c0-.779.154-1.53 1.108-1.53.96 0 1.03.888 1.03 1.585v2.9h1.788v-3.273c0-.307-.016-.592-.049-.856zM5.4 9.962v4.376h2.084V8.378H5.4v1.585z"/></g></svg>
